X:1
T:Las, que me sert
T:Nicolas de Marle
T:Source : Livre VIII de 25 chansons nouvelles à 4 parties---Paris---N.du Chemin---1550. Editor : André Vierendeels (24/03/18) Notes : Original clefs : C1, C3, C4, F3 Original note values have been quartered in 3-beat measures Original note values have been halved Editorial accidentals above the staff Dotted brackets indicate black notes
T:Las, que me sert
T:©
T:©
T:©
T:©
C:Nicolas de Marle
Z:©
%%score [ 1 [ 2 3 ] 4 ]
L:1/8
Q:1/4=120
M:3/4
K:F
V:1 treble nm="Alto" snm="A"
V:2 treble-8 nm="Tenor 1" snm="T 1"
V:3 treble-8 nm="Tenor 2" snm="T 2"
V:4 bass nm="Bass" snm="B"
V:1
 G2 G2 G2 | F4 F2 | G2 B4 | A4 G2 | F4 z2 | F2 A2 B2 |[M:2/2] c2 G2 B3 A | G2 G2 F2 A2- | %8
w: Las, que me|sert ce|riz tant|gra- ti-|eux,|et le bai-|ser, sans le _|_ don de mer-|
w: Puis- que n'ay|point le|ieu de-|li- ci-|eux,|ce- la ne|faict que me _|_ don- ner sou-|
"^#" AG G4 F2 |1 G8 :|2 G2 B2 BAGF || G4 G4 | F2 F2 FEFG | A2 B2 G2 G2 | F4 z2 F2 | F2 E2 DCDE | %16
w: |cy,|cy, i'ay- me- * * *|* rois|mieulx qu'on me _ _ _|_ dict; fuiz d'i-|cy, puis-|que ie n'ay _ _ _|
w: ||||||||
 F2 G2 F2 E2 |"^#" E2 D4 C2 | D4 z2 B2- | B2 A2 G4 | F2 F2 G2 B2- | B2 A4 G2- | G2 FE F4 | %23
w: _ le don de|iou- is- san-|ce, car|_ ie ne|puis me con- ten-|* ter ain-|* * * si,|
w: |||||||
 G2 GG D2 D2 | FEFG A2 B2- | B2 A4 G2- |"^#" G2 F2 G4- | G4 G2 GG | D2 D2 FEFG | A2 B4 A2- | %30
w: ri- r'et bai- ser c'est|peu _ _ _ _ de|_ re- com-|* pen se,|_ ri- r'et bai-|ser c'est peu _ _ _|_ de re-|
w: |||||||
 A2 G4 F2 | G8 |] %32
w: * com- pen-|se.|
w: ||
V:2
 d2 d2 d2 | d4 d2 | e2 f4 | f2 d4 | d4 z2 | d2 f2 f2 |[M:2/2] e2 dc d4- | d2 d2 d2 e2 | d2 c2 d4 |1 %9
w: Las, que me|sert ce|riz tant|gra- ti-|eux,|et le bai-|ser _ _ _|_ sans le don|de _ mer-|
w: Puis- que n'ay|point le|ieu de-|li- ci-|eux,|ce- la ne|faict _ _ _|_ que me don-|ner _ sou-|
 d8 :|2 d4 z2 G2 || G2 G2 d4- | d2 d2 d4 |"^b""^b" e2 f2 e4 | d4 z2 d2 | c2 c2 A4 | d4 d2 c2 | %17
w: cy,|cy, i'ay-|me- rois mieulx|_ qu'on me|dict: fuiz d'i-|cy, puis-|que ie n'ay|le don de|
w: ||||||||
 c2 A2 A4 | A2 A2 B3 c | de f2 d4 | d2 d2 e2 f2 | f2 e2 d4 | d2 dd A2 A2 | B3 c d2 B2 | %24
w: iou- is- san-|ce, car ie _|_ _ _ ne|puis me con- ten-|ter ain- si,|ri- r'et bai- ser c'est|peu _ _ de|
w: |||||||
 A2 d2 c2 f2- | f2 e2 d2 c2 | d4 d2 dd | G2 G2 B3 c | d2 B2 A2 d2 | c2 f4 e2 | d2 c2 d4 | B8 |] %32
w: re- com- pen- *||se, ri- r'et bai-|ser c'est peu _|_ de re- com-|pen- * *||se.|
w: ||||||||
V:3
 G2 B2 B2 | A4 A2 | c2 d2 dc | BA B2 B2 | A4 z2 | A2 A2 F2 |[M:2/2] G4 z2 G2 | B3 c d2 c2 | %8
w: Las, que me|sert ce|riz tant gra- *|* * * ti-|eux,|et le bai-|ser sans|le _ _ don|
w: Puis- que n'ay|point le|ieu de- li- *|* * * ci-|eux,|ce- la ne|faict que|me _ _ don-|
 B2 AG A4 |1 G8 :|2 G4 z2 B2 || B6 B2 | A2 A2 AGAB | c2 d2 c3 B | A2 A2 A4- | A2 G2 FEFG | %16
w: de- * * mer-|cy,|cy, i'ay-|me- rois|mieulx qu'on me _ _ _|_ dict: fuiz d'i-|cy, puis- que|_ ie n'ay _ _ _|
w: ner _ _ sou-||||||||
 A2 B2 A2 A2 | G2 F2 E4 | D4 z2 d2- | d2 c2 B4 | A2 A2 c2 d2- | d2 c2 B4 | A4 d2 dd | G2 G2 B3 c | %24
w: _ le don de|iou- is- san-|ce, car|_ ie ne|puis me con- ten-|* ter ain-|si, ri- r'et bai-|ser c'est peu _|
w: ||||||||
 d2 B2 A2 d2- | d2 c2 B2 AG | A4 G4 | d2 dd G2 G2 | B3 c d2 B2 | A2 d4 c2 |"^b" B2 AG A4 | G8 |] %32
w: _ de re- com-|* * pen- * *|* se,|ri- r'et bai- ser c'est|peu _ _ de|re- com- *|pen- * * *|se.|
w: ||||||||
V:4
 G,,2 G,,2 G,,2 | D,4 D,2 | C,2 B,,C, D,E, | F,2 G,2 G,2 | D,4 z2 | D,2 D,2 D,2 | %6
w: Las, que me|sert ce|riz tant _ _ _|_ gra- ti-|eux,|et le bai-|
w: Puis- que n'ay|point le|ieu de- * * *|* li- ci-|eux,|ce- la ne|
[M:2/2] C,3 B,,/A,,/ G,,4 | z2 G,,2 B,,2 C,2 |"^b" D,2 E,2 D,4 |1 G,,8 :|2 G,,8 || %11
w: ser, _ _ _|sans le don|de _ mer-|cy,|cy,|
w: faict, _ _ _|que me don-|ner _ sou-|||
 z2 G,,2 G,,2 G,,2 | D,6 D,2 | C,2 B,,2 C,2 C,2 | D,4 z2 D,2 | F,2 C,2 D,4 | z2 G,,2 D,2 A,,2 | %17
w: i'ay- me- rois|mieulx qu'on|me dict: fuiz di'i-|cy, puis-|que ie n'ay|le don de|
w: ||||||
 C,2 D,2 A,,4 | D,4 z2 G,,2 | B,,2 F,,2 G,,A,,B,,C, | D,2 D,2 C,2 B,,2- | B,,2 C,2 D,2 G,,2 | D,8 | %23
w: iou- is- sans-|ce, car|ie ne puis _ _ _|_ me con- ten-|* * ter ain-|si,|
w: ||||||
 z4 G,2 G,G, | D,2 D,2 F,E,D,C, |"^b" B,,2 C,2 D,2 E,2 | D,4 G,,4- | G,,4 z4 | G,2 G,G, D,2 D,2 | %29
w: ri- r'et bai-|ser c'est peu _ _ _|_ de re- com-|pen- se,|_|ri- r'et bai- ser c'est|
w: ||||||
 F,E,D,C, B,,2 C,2 |"^b" D,2 E,2 D,4 | G,,8 |] %32
w: peu _ _ _ _ de|re- com- pen-|se.|
w: |||

